webroot/img/new-desgin/why_besa/icon-7.svg

<svg width="104" height="105" viewBox="0 0 104 105" fill="none" xmlns="http://www.w3.org/2000/svg">
<g id="Frame">
<g id="Group">
<path id="Vector" d="M13 81.667H8.125C7.69402 81.667 7.2807 81.8382 6.97595 82.1429C6.67121 82.4477 6.5 82.861 6.5 83.292C6.5 83.723 6.67121 84.1363 6.97595 84.441C7.2807 84.7458 7.69402 84.917 8.125 84.917H13C13.431 84.917 13.8443 84.7458 14.149 84.441C14.4538 84.1363 14.625 83.723 14.625 83.292C14.625 82.861 14.4538 82.4477 14.149 82.1429C13.8443 81.8382 13.431 81.667 13 81.667ZM19.5 81.667H17.875C17.444 81.667 17.0307 81.8382 16.726 82.1429C16.4212 82.4477 16.25 82.861 16.25 83.292C16.25 83.723 16.4212 84.1363 16.726 84.441C17.0307 84.7458 17.444 84.917 17.875 84.917H19.5C19.931 84.917 20.3443 84.7458 20.649 84.441C20.9538 84.1363 21.125 83.723 21.125 83.292C21.125 82.861 20.9538 82.4477 20.649 82.1429C20.3443 81.8382 19.931 81.667 19.5 81.667Z" fill="url(#paint0_linear_31_299)"/>
<path id="Vector_2" d="M95.875 34.542H92.625V21.542C92.6227 19.8188 91.9372 18.1668 90.7187 16.9483C89.5002 15.7298 87.8482 15.0442 86.125 15.042H17.875C16.1517 15.0439 14.4995 15.7294 13.2809 16.9479C12.0624 18.1665 11.3769 19.8187 11.375 21.542V50.792H8.125C6.40169 50.7939 4.74951 51.4794 3.53094 52.6979C2.31238 53.9165 1.62694 55.5687 1.625 57.292V83.292C1.62694 85.0153 2.31238 86.6675 3.53094 87.886C4.74951 89.1046 6.40169 89.7901 8.125 89.792H24.375C26.0982 89.7897 27.7502 89.1042 28.9687 87.8857C30.1872 86.6672 30.8727 85.0152 30.875 83.292V78.417H45.043L44.2305 81.667H39C38.569 81.667 38.1557 81.8382 37.851 82.1429C37.5462 82.4477 37.375 82.861 37.375 83.292V88.167C37.375 88.598 37.5462 89.0113 37.851 89.316C38.1557 89.6208 38.569 89.792 39 89.792H95.875C97.5982 89.7897 99.2502 89.1042 100.469 87.8857C101.687 86.6672 102.373 85.0152 102.375 83.292V41.042C102.373 39.3188 101.687 37.6668 100.469 36.4483C99.2502 35.2298 97.5982 34.5442 95.875 34.542ZM27.625 83.292C27.6239 84.1536 27.2811 84.9796 26.6719 85.5888C26.0626 86.1981 25.2366 86.5409 24.375 86.542H8.125C7.26339 86.5409 6.4374 86.1981 5.82815 85.5888C5.2189 84.9796 4.87613 84.1536 4.875 83.292V57.292C4.87613 56.4304 5.2189 55.6044 5.82815 54.9951C6.4374 54.3859 7.26339 54.0431 8.125 54.042H10.203L11.4583 57.8059C11.5661 58.1295 11.7731 58.4109 12.0498 58.6103C12.3265 58.8097 12.6589 58.917 13 58.917H19.5C19.8411 58.917 20.1735 58.8097 20.4502 58.6103C20.7269 58.4109 20.9339 58.1295 21.0417 57.8059L22.297 54.042H24.375C25.2366 54.0431 26.0626 54.3859 26.6719 54.9951C27.2811 55.6044 27.6239 56.4304 27.625 57.292V83.292ZM13.6297 54.042H18.8703L18.328 55.667H14.172L13.6297 54.042ZM30.875 75.167V70.292H60.125V75.167H30.875ZM60.125 78.417V81.667H59.7695L58.957 78.417H60.125ZM56.418 81.667H47.582L48.3945 78.417H55.6055L56.418 81.667ZM40.625 86.542V84.917H60.3302C60.4789 85.4865 60.7044 86.0332 61.0005 86.542H40.625ZM60.125 41.042V67.042H30.875V57.292C30.8727 55.5688 30.1872 53.9168 28.9687 52.6983C27.7502 51.4798 26.0982 50.7943 24.375 50.792H14.625V21.542C14.6261 20.6804 14.9689 19.8544 15.5781 19.2451C16.1874 18.6359 17.0134 18.2931 17.875 18.292H86.125C86.9866 18.2931 87.8126 18.6359 88.4219 19.2451C89.0311 19.8544 89.3739 20.6804 89.375 21.542V34.542H66.625C64.9018 34.5442 63.2498 35.2298 62.0313 36.4483C60.8128 37.6668 60.1273 39.3188 60.125 41.042ZM99.125 83.292C99.1239 84.1536 98.7811 84.9796 98.1719 85.5888C97.5626 86.1981 96.7366 86.5409 95.875 86.542H66.625C65.7634 86.5409 64.9374 86.1981 64.3281 85.5888C63.7189 84.9796 63.3761 84.1536 63.375 83.292V41.042C63.3761 40.1804 63.7189 39.3544 64.3281 38.7451C64.9374 38.1359 65.7634 37.7931 66.625 37.792H95.875C96.7366 37.7931 97.5626 38.1359 98.1719 38.7451C98.7811 39.3544 99.1239 40.1804 99.125 41.042V83.292Z" fill="url(#paint1_linear_31_299)"/>
<path id="Vector_3" d="M95.875 39.417H66.625C66.194 39.417 65.7807 39.5882 65.476 39.8929C65.1712 40.1977 65 40.611 65 41.042V78.417C65 78.848 65.1712 79.2613 65.476 79.566C65.7807 79.8708 66.194 80.042 66.625 80.042H95.875C96.306 80.042 96.7193 79.8708 97.024 79.566C97.3288 79.2613 97.5 78.848 97.5 78.417V41.042C97.5 40.611 97.3288 40.1977 97.024 39.8929C96.7193 39.5882 96.306 39.417 95.875 39.417ZM94.25 76.792H68.25V42.667H94.25V76.792Z" fill="url(#paint2_linear_31_299)"/>
<path id="Vector_4" d="M79.625 84.917C80.5225 84.917 81.25 84.1895 81.25 83.292C81.25 82.3945 80.5225 81.667 79.625 81.667C78.7275 81.667 78 82.3945 78 83.292C78 84.1895 78.7275 84.917 79.625 84.917Z" fill="url(#paint3_linear_31_299)"/>
</g>
</g>
<defs>
<linearGradient id="paint0_linear_31_299" x1="7.86982" y1="81.9639" x2="8.89935" y2="87.7861" gradientUnits="userSpaceOnUse">
<stop stop-color="#007BC4"/>
<stop offset="1" stop-color="#0B4C97"/>
</linearGradient>
<linearGradient id="paint1_linear_31_299" x1="11.0615" y1="21.8701" x2="71.5194" y2="124.275" gradientUnits="userSpaceOnUse">
<stop stop-color="#007BC4"/>
<stop offset="1" stop-color="#0B4C97"/>
</linearGradient>
<linearGradient id="paint2_linear_31_299" x1="68.044" y1="43.1279" x2="105.57" y2="80.8554" gradientUnits="userSpaceOnUse">
<stop stop-color="#007BC4"/>
<stop offset="1" stop-color="#0B4C97"/>
</linearGradient>
<linearGradient id="paint3_linear_31_299" x1="78.3044" y1="81.9639" x2="81.2298" y2="85.6403" gradientUnits="userSpaceOnUse">
<stop stop-color="#007BC4"/>
<stop offset="1" stop-color="#0B4C97"/>
</linearGradient>
</defs>
</svg>

<svg width="104" height="105" fill="none" xmlns="http://www.w3.org/2000/svg"><path d="M13 81.667H8.125a1.625 1.625 0 0 0 0 3.25H13a1.625 1.625 0 1 0 0-3.25Zm6.5 0h-1.625a1.625 1.625 0 1 0 0 3.25H19.5a1.625 1.625 0 1 0 0-3.25Z" fill="url(#a)"/><path d="M95.875 34.542h-3.25v-13a6.509 6.509 0 0 0-6.5-6.5h-68.25a6.508 6.508 0 0 0-6.5 6.5v29.25h-3.25a6.507 6.507 0 0 0-6.5 6.5v26a6.507 6.507 0 0 0 6.5 6.5h16.25a6.509 6.509 0 0 0 6.5-6.5v-4.875h14.168l-.813 3.25H39a1.625 1.625 0 0 0-1.625 1.625v4.875A1.625 1.625 0 0 0 39 89.792h56.875a6.51 6.51 0 0 0 6.5-6.5v-42.25a6.51 6.51 0 0 0-6.5-6.5Zm-68.25 48.75a3.254 3.254 0 0 1-3.25 3.25H8.125a3.254 3.254 0 0 1-3.25-3.25v-26a3.254 3.254 0 0 1 3.25-3.25h2.078l1.255 3.764A1.624 1.624 0 0 0 13 58.917h6.5a1.625 1.625 0 0 0 1.542-1.111l1.255-3.764h2.078a3.255 3.255 0 0 1 3.25 3.25v26ZM13.63 54.042h5.24l-.542 1.625h-4.156l-.542-1.625Zm17.245 21.125v-4.875h29.25v4.875h-29.25Zm29.25 3.25v3.25h-.355l-.813-3.25h1.168Zm-3.707 3.25h-8.836l.813-3.25h7.21l.813 3.25Zm-15.793 4.875v-1.625H60.33c.149.57.374 1.116.67 1.625H40.626Zm19.5-45.5v26h-29.25v-9.75a6.509 6.509 0 0 0-6.5-6.5h-9.75v-29.25a3.255 3.255 0 0 1 3.25-3.25h68.25a3.255 3.255 0 0 1 3.25 3.25v13h-22.75a6.508 6.508 0 0 0-6.5 6.5Zm39 42.25a3.254 3.254 0 0 1-3.25 3.25h-29.25a3.254 3.254 0 0 1-3.25-3.25v-42.25a3.255 3.255 0 0 1 3.25-3.25h29.25a3.255 3.255 0 0 1 3.25 3.25v42.25Z" fill="url(#b)"/><path d="M95.875 39.417h-29.25A1.625 1.625 0 0 0 65 41.042v37.375a1.625 1.625 0 0 0 1.625 1.625h29.25a1.625 1.625 0 0 0 1.625-1.625V41.042a1.625 1.625 0 0 0-1.625-1.625ZM94.25 76.792h-26V42.667h26v34.125Z" fill="url(#c)"/><path d="M79.625 84.917a1.625 1.625 0 1 0 0-3.25 1.625 1.625 0 0 0 0 3.25Z" fill="url(#d)"/><defs><linearGradient id="a" x1="7.87" y1="81.964" x2="8.899" y2="87.786" gradientUnits="userSpaceOnUse"><stop stop-color="#007BC4"/><stop offset="1" stop-color="#0B4C97"/></linearGradient><linearGradient id="b" x1="11.062" y1="21.87" x2="71.519" y2="124.275" gradientUnits="userSpaceOnUse"><stop stop-color="#007BC4"/><stop offset="1" stop-color="#0B4C97"/></linearGradient><linearGradient id="c" x1="68.044" y1="43.128" x2="105.57" y2="80.855" gradientUnits="userSpaceOnUse"><stop stop-color="#007BC4"/><stop offset="1" stop-color="#0B4C97"/></linearGradient><linearGradient id="d" x1="78.304" y1="81.964" x2="81.23" y2="85.64" gradientUnits="userSpaceOnUse"><stop stop-color="#007BC4"/><stop offset="1" stop-color="#0B4C97"/></linearGradient></defs></svg>
